X:1
T:Everybody May Know
T:Everybody May Know
T:Edwin Othello Excell
T:Carrie Elizabeth Ellis Breck, 1902
T:Public Domain Courtesy of the Cyber Hymnal™
T:Public Domain Courtesy of the Cyber Hymnal™
C:Edwin Othello Excell
Z:Public Domain
Z:Courtesy of the Cyber Hymnal™
%%score ( 1 2 ) ( 3 4 )
L:1/8
Q:1/4=102
M:4/4
K:Bb
V:1 treble 
V:2 treble 
V:3 bass 
V:4 bass 
V:1
 [F,D]2 | [B,D]2 [B,D][B,D] [A,D][A,D] [G,D]2 | [G,E]4 F,2 F,2 | %3
w: 1.~I|have such a won- der- ful|Sav- ior, Who|
w: 2.~His|mer- cy and love are un-|bound- ed, He|
w: 3.~He|helps me when tri- als sur-|round me, His|
w: 4.~My|life and my love I will|give Him, And|
 [B,D]2 [B,D][B,D] [F,D] [F,D]2 [G,D] | [A,E]6 [F,E]2 | [CE]2 [B,E][B,E] [A,E] [A,E]2 [G,E] | %6
w: helps me wher- ev- er I|go; That|I must be tell- ing His|
w: makes me with glad- ness o’er-|flow; Oh,|He is “the Chief of ten|
w: grace and His good- ness to|show; Oh,|how can I help but a-|
w: faith- ful- ly serve Him be-|low; Who|brought me His won- drous sal-|
 [G,E]4 [F,D]2 [B,D]2 | [G,=E]2 [CE]2 [B,E] [A,E]2 [B,E] | ([A,F]2 [B,=E]2 [C_E]4) || %9
w: good- ness For|ev- ery- bo- dy should|know. * *|
w: thou- sand” That|ev- ery- bo- dy should|know. * *|
w: dore Him That|ev- ery- bo- dy should|know. * *|
w: va- tion, That|ev- ery- bo- dy should|know. * *|
"^Refrain" [Fd]2 [Fd]2 [Fd] [DF]2 [DG] | A6 z2 | [Fe]2 [Ge]2 [Ae] [EG]2 [EA] | F6 [DF]2 | %13
w: ||||
w: ||||
w: Ev- ery- bo- dy should|know,|Ev- ery- bo- dy should|know; I|
w: ||||
 [Ff]2 [Ff][Ff] [Fe] [Fe]2 [Fd] | [EF]4 [FB]2 [Ff]2 | [Gf]2 [Ge]2 [Fd] [Fd]2 [Ec] | [DB]6 |] %17
w: ||||
w: ||||
w: have such a won- der- ful|Sav- ior, That|ev- ery- bo- dy should|know.|
w: ||||
V:2
 x2 | x8 | x8 | x8 | x8 | x8 | x8 | x8 | x8 || x8 | (E2 E2 E2) x2 | x8 | (D2 E2 D2) x2 | x8 | x8 | %15
 x8 | x6 |] %17
V:3
 F,2 | B,2 B,B, A,A, G,2 | [B,,G,]4 F,2 F,2 | B,2 B,B, F, F,2 G, | [F,,F,A,]6 F,2 | %5
w: ~|~ ~ ~ ~ ~ ~|~ ~ ~|~ ~ ~ ~ ~ ~|~ ~|
 C2 B,B, A, A,2 G, | [B,,G,]4 F,2 B,2 | G,2 C2 B, A,2 B, | (A,2 B,2 C4) || %9
w: ~ ~ ~ ~ ~ ~|~ ~ ~|~ ~ ~ ~ ~|~ * *|
 [B,,B,]2 [B,,B,]2 [B,,B,] [B,,B,]2 [B,,B,] | [C,F,]2 [C,F,]2 [F,C]2 z2 | %11
w: ~ ~ ~ ~ ~|~ should know,|
 [F,A,]2 [F,B,]2 [F,C] [F,A,]2 F, | [B,,F,]2 [B,,C]2 [B,,B,]2 [B,,B,]2 | %13
w: ~ ~ ~ ~ ~|~ should know, *|
 [D,B,]2 [D,B,][D,B,] [C,A,] [C,A,]2 [B,,B,] | [C,A,]4 [D,B,]2 [D,B,]2 | %15
w: ||
 [E,B,]2 [E,B,]2 [F,B,] [F,B,]2 [F,A,] | [B,,B,]6 |] %17
w: ||
V:4
 x2 | B,,4 B,,4 | x4 B,,4 | B,,4 B,,4 | x8 | [F,,F,]4 [F,,F,]4 | x4 B,,4 | C,4 C,4 | [F,,F,]8 || %9
 x8 | x8 | x7 F, | x8 | x8 | x8 | x8 | x6 |] %17

